images/Star_big.svg

<svg width="65" height="65" viewBox="0 0 65 65" fill="none" xmlns="http://www.w3.org/2000/svg">
<path d="M32.7129 0.712891L39.9537 25.4721L64.7129 32.7129L39.9537 39.9537L32.7129 64.7129L25.4721 39.9537L0.712891 32.7129L25.4721 25.4721L32.7129 0.712891Z" fill="#011F4A"/>
</svg>

<svg xmlns="http://www.w3.org/2000/svg" fill="none" viewBox="0 0 65 65">
  <path fill="#011F4A" d="m32.713.713 7.24 24.76 24.76 7.24-24.76 7.24-7.24 24.76-7.24-24.76-24.76-7.24 24.76-7.24 7.24-24.76Z"/>
</svg>
